www/assets/icons/straighten.svg

<svg xmlns="http://www.w3.org/2000/svg" width="24" height="24" viewBox="0 0 24 24" fill='currentColor'><path d="M21 6H3c-1.1 0-2 .9-2 2v8c0 1.1.9 2 2 2h18c1.1 0 2-.9 2-2V8c0-1.1-.9-2-2-2m0 10H3V8h2v4h2V8h2v4h2V8h2v4h2V8h2v4h2V8h2z"/></svg>

<svg width="24" height="24" viewBox="0 0 24 24" xmlns="http://www.w3.org/2000/svg" fill='currentColor'><path d="M21 6H3C1.9 6 1 6.9 1 8V16C1 17.1 1.9 18 3 18H21C22.1 18 23 17.1 23 16V8C23 6.9 22.1 6 21 6ZM21 16H3V8H5V12H7V8H9V12H11V8H13V12H15V8H17V12H19V8H21V16Z"/></svg>
